X: 7724
T: Colonel MacLeod's
R: reel
M: 4/4
K: Amixolydian
c|efec a2 cd|efec fBBc|efec a2 ed|ceBd cAAf:|
eaga f2 ed|caga fBBf|eaga f2 ed|ceBd cAAf|
eaga f2 ed|caga fBBf|eaga faea|caBa cAAf|

